img/i-paper-white.svg

<svg xmlns="http://www.w3.org/2000/svg" viewBox="0 0 256 256" enable-background="new 0 0 256 256"><style type="text/css">.st0{fill:#ffffff;}</style><path class="st0" d="M87.78 85.87h82.44v15.97h-82.44zm0 23.06h82.44v15.97h-82.44zm0 23.06h53.28v15.98h-53.28zm102.61 83.48h-122.78c-10.09 0-18.31-8.21-18.31-18.31v-144.33c0-10.09 8.21-18.31 18.31-18.31h122.78c10.09 0 18.3 8.21 18.3 18.31v144.34c0 10.1-8.21 18.3-18.3 18.3zm-120.85-20.22h118.93v-140.5h-118.93v140.5z"/></svg>

<svg xmlns="http://www.w3.org/2000/svg" viewBox="0 0 256 256" enable-background="new 0 0 256 256"><style type="text/css">.st0{fill:#ffffff;}</style><path class="st0" d="M87.78 85.87h82.44v15.97H87.78zm0 23.06h82.44v15.97H87.78zm0 23.06h53.28v15.98H87.78zm102.61 83.48H67.61c-10.09 0-18.31-8.21-18.31-18.31V52.83c0-10.09 8.21-18.31 18.31-18.31h122.78c10.09 0 18.3 8.21 18.3 18.31v144.34c0 10.1-8.21 18.3-18.3 18.3zM69.54 195.25h118.93V54.75H69.54v140.5z"/></svg>
